X: 39285
T: Takaka Rain
R: jig
M: 6/8
K: Eminor
|:ABe BAG|z2B AGE|~A3 AGE|zAG BGE|
ABe BAG|z2B AGE|~e2B deg|~A3 AGE|
ABe BAG|z2B AGE|~A3 AGE|zAG ABd|
e2B deg-|ged edB|ADE GEB-|1 BAG AGE:|2 BAG ABc||
|:.d3 ~B3|ded BGB|~A3 ~E3|~A3 EDB|
ded ~B3|edB deg|a2b age|def g3|
zab age|dgd edB|ADB AGE|EDB EFG|
d2 d-d3|z2A EFA|G3-G3|z3-z3:|

